svg/icon/etp.svg

<svg xmlns="http://www.w3.org/2000/svg" xmlns:xlink="http://www.w3.org/1999/xlink" width="32" height="32" viewBox="0 0 32 32"><defs><linearGradient id="etp-c" x1="50%" x2="50%" y1="0%" y2="100%"><stop offset="0%" stop-color="#FFF" stop-opacity=".5"/><stop offset="100%" stop-opacity=".5"/></linearGradient><circle id="etp-b" cx="16" cy="15" r="15"/><filter id="etp-a" width="111.7%" height="111.7%" x="-5.8%" y="-4.2%" filterUnits="objectBoundingBox"><feOffset dy=".5" in="SourceAlpha" result="shadowOffsetOuter1"/><feGaussianBlur in="shadowOffsetOuter1" result="shadowBlurOuter1" stdDeviation=".5"/><feComposite in="shadowBlurOuter1" in2="SourceAlpha" operator="out" result="shadowBlurOuter1"/><feColorMatrix in="shadowBlurOuter1" values="0 0 0 0 0 0 0 0 0 0 0 0 0 0 0 0 0 0 0.199473505 0"/></filter><path id="etp-e" d="M18.0799626,11.5742409 C18.0765727,12.4666271 18.0712759,13.3588012 18.0702166,14.2509753 C18.0685216,15.7353867 18.0668267,17.2200102 18.0736065,18.7042095 C18.074454,18.8832383 18.0248763,18.9905707 17.8668209,19.0860244 C17.2574813,19.4527788 16.6578877,19.8356543 16.0127419,20.2388932 L16.0127419,19.9139263 C16.0127419,17.6166735 16.0101995,15.3192085 16.0174031,13.0219556 C16.0180387,12.830624 15.9671898,12.7232916 15.794939,12.6297469 C15.2601778,12.3395676 14.7370695,12.0283885 14.2088763,11.7263305 C14.1506119,11.6930277 14.0887457,11.6660886 13.999972,11.6217556 L13.999972,11.9371771 C13.999972,13.9960078 13.9963702,16.0548385 14.0056925,18.1134571 C14.00654,18.3204856 13.9402245,18.4276058 13.7654313,18.5245444 C13.2414755,18.8155722 12.7276895,19.1252665 12.2094542,19.4266881 C12.1359351,19.4693241 12.0590261,19.5060208 11.9429211,19.566899 L11.9429211,19.2461745 C11.9429211,17.178647 11.9378362,15.1111194 11.9497009,13.0435918 C11.951184,12.8034727 11.8700376,12.6844737 11.6706675,12.5735353 C11.0856929,12.2483563 10.512795,11.9017532 9.90620974,11.5466654 C10.5784749,11.160396 11.2236206,10.7843083 11.8772412,10.4232811 C11.9369887,10.3901905 12.0615686,10.433675 12.1369945,10.4758867 C12.7058668,10.7955506 13.2726205,11.1194569 13.8338655,11.4522722 C13.9696745,11.5326655 14.0690418,11.5419987 14.2105713,11.455454 C14.7294422,11.1379113 15.2646271,10.8470957 15.7805319,10.5250984 C15.9669779,10.408857 16.1015157,10.4279478 16.2780038,10.5335832 C16.8754787,10.8914286 17.4824878,11.233365 18.0856831,11.5812408 L18.0799626,11.5742409 Z M18.0857467,11.5812832 C18.1304514,11.5352533 18.1677406,11.4758599 18.221132,11.4448905 C18.7844957,11.117166 19.3468001,10.7868962 19.919698,10.4765655 C20.0120735,10.4267175 20.1779681,10.429475 20.2711911,10.4797473 C20.8529876,10.7928355 21.4265211,11.1214084 21.9943341,11.4586782 C22.0718787,11.5047082 22.1500589,11.6268889 22.1502708,11.7142821 C22.1589575,13.8774755 22.1576863,16.0406689 22.1542964,18.2038623 C22.1540845,18.2749223 22.1360755,18.3835274 22.0890402,18.4117393 C21.4407164,18.7977966 20.7858246,19.1730358 20.0913131,19.5747899 L20.0913131,19.2460048 C20.0913131,17.1621441 20.0894062,15.0784954 20.094703,12.9946347 C20.0951267,12.817515 20.0527526,12.7114553 19.886858,12.6196076 C19.2785777,12.2821257 18.6813147,11.9242803 18.0800262,11.5740712 C18.0800262,11.5742833 18.0857467,11.5812832 18.0857467,11.5812832 Z M6.93928087,17.7879387 C6.14434267,17.7915447 5.50618865,17.1647319 5.50004441,16.3747994 C5.49390016,15.5835941 6.1261218,14.9459632 6.92000065,14.941933 C7.71790504,14.9379027 8.35415222,15.563867 8.35796589,16.3559207 C8.36177956,17.1503078 7.73358346,17.7845447 6.93928087,17.7879387 Z M8.85408191,22.0746592 C8.11041637,22.0793258 7.50404293,21.4868764 7.49387315,20.7448828 C7.48370336,20.011374 8.0843563,19.396652 8.82632687,19.3807431 C9.5513478,19.3654705 10.1782727,19.9816773 10.1856881,20.7177315 C10.1931036,21.4571796 9.59202694,22.0697804 8.85408191,22.0746592 Z M7.76667763,10.3993965 C8.48618993,10.4013056 9.06523207,10.9786945 9.06523207,11.6943853 C9.0650202,12.4211063 8.47263022,13.0061315 7.74527871,12.9978589 C7.02470706,12.9893741 6.46664011,12.4155912 6.46981816,11.6856884 C6.47299622,10.9587553 7.03869052,10.3974874 7.76667763,10.3993965 Z M25.2889419,15.3046571 C24.6187955,15.3088995 24.071322,14.7720253 24.0643303,14.1044857 C24.0573386,13.4261279 24.6107444,12.8699509 25.2883063,12.8744054 C25.9576053,12.879072 26.5021125,13.4254915 26.4999938,14.0904858 C26.498087,14.7609951 25.9595121,15.3006268 25.2889419,15.3046571 Z M9.54194075,7.61709026 C9.54405945,6.99261081 10.0281836,6.50813016 10.6472693,6.51131195 C11.2642362,6.51428162 11.7534453,7.00936825 11.748996,7.62599928 C11.7443348,8.24602422 11.2502528,8.73814117 10.6385826,8.73198971 C10.0156832,8.72562613 9.53982204,8.24178183 9.54194075,7.61709026 Z M24.6363595,19.9089203 C24.0126127,19.9129506 23.5287004,19.4346214 23.5255224,18.8103541 C23.5221325,18.1911776 24.0068922,17.6939698 24.6206811,17.6869698 C25.2287495,17.680182 25.7293996,18.1788747 25.7323657,18.794233 C25.7353319,19.4210457 25.2596826,19.90489 24.6363595,19.9089203 Z M15.9860886,5.85406006 C15.9759189,6.32666203 15.6023911,6.68344682 15.1335217,6.66881058 C14.6635928,6.65417435 14.3112522,6.27766245 14.3267187,5.80654532 C14.3415496,5.35409468 14.7169842,4.99434022 15.1684803,5.00006744 C15.633748,5.00600679 15.9964703,5.38463987 15.9860886,5.85406006 Z M21.7570815,23.3560723 C21.2945681,23.352042 20.9356595,22.98953 20.9390494,22.5300795 C20.9422275,22.0585381 21.3119415,21.6983594 21.7875909,21.7034502 C22.2477736,21.7085411 22.607106,22.0729622 22.6062586,22.5338976 C22.6051992,23.0045905 22.2380276,23.3603147 21.7570815,23.3560723 Z M17.4774452,24.9999975 C17.0280679,24.999149 16.6914056,24.6606065 16.6935243,24.2117619 C16.695643,23.7705536 17.045865,23.4250111 17.4886744,23.4273444 C17.9234327,23.4296777 18.2857313,23.7936746 18.2802227,24.2227921 C18.274714,24.6663337 17.9289413,25.0010581 17.4774452,24.9999975 Z M20.1045338,7.2765326 C19.716387,7.27504777 19.4000643,6.95283843 19.4028186,6.56211454 C19.4057848,6.17160276 19.7254974,5.85384794 20.1132205,5.85660549 C20.496918,5.85915092 20.8229867,6.18814808 20.8217155,6.57102355 C20.8202324,6.95177783 20.4884432,7.27801744 20.1045338,7.2765326 Z M13.5672688,23.5594948 C13.5607008,23.9080069 13.2846335,24.1744289 12.9365303,24.1680653 C12.5865202,24.1619138 12.323377,23.8870071 12.3318518,23.5361617 C12.3403266,23.1889222 12.6206313,22.9161367 12.9608954,22.923773 C13.3037019,22.9316214 13.5738368,23.2145887 13.5672688,23.5594948 Z M24.2304156,9.57970359 C24.236348,9.88345854 24.0115534,10.1235777 23.7117566,10.1333352 C23.4204346,10.1426684 23.1712749,9.90403412 23.1638594,9.60812759 C23.1562321,9.30649383 23.3822979,9.06701105 23.6835778,9.05788992 C23.982739,9.04876879 24.2242714,9.27913043 24.2304156,9.57970359 Z"/><filter id="etp-d" width="116.7%" height="117.5%" x="-8.3%" y="-6.2%" filterUnits="objectBoundingBox"><feOffset dy=".5" in="SourceAlpha" result="shadowOffsetOuter1"/><feGaussianBlur in="shadowOffsetOuter1" result="shadowBlurOuter1" stdDeviation=".5"/><feColorMatrix in="shadowBlurOuter1" values="0 0 0 0 0 0 0 0 0 0 0 0 0 0 0 0 0 0 0.204257246 0"/></filter></defs><g fill="none" fill-rule="evenodd"><use fill="#000" filter="url(#etp-a)" xlink:href="#etp-b"/><use fill="#00A5FF" xlink:href="#etp-b"/><use fill="url(#etp-c)" style="mix-blend-mode:soft-light" xlink:href="#etp-b"/><circle cx="16" cy="15" r="14.5" stroke="#000" stroke-opacity=".097"/><g><use fill="#000" filter="url(#etp-d)" xlink:href="#etp-e"/><use fill="#FFF" xlink:href="#etp-e"/></g></g></svg>

<svg xmlns="http://www.w3.org/2000/svg" xmlns:xlink="http://www.w3.org/1999/xlink" width="32" height="32" viewBox="0 0 32 32"><defs><linearGradient id="c" x1="50%" x2="50%" y1="0%" y2="100%"><stop offset="0%" stop-color="#FFF" stop-opacity=".5"/><stop offset="100%" stop-opacity=".5"/></linearGradient><circle id="b" cx="16" cy="15" r="15"/><filter id="a" width="111.7%" height="111.7%" x="-5.8%" y="-4.2%" filterUnits="objectBoundingBox"><feOffset dy=".5" in="SourceAlpha" result="shadowOffsetOuter1"/><feGaussianBlur in="shadowOffsetOuter1" result="shadowBlurOuter1" stdDeviation=".5"/><feComposite in="shadowBlurOuter1" in2="SourceAlpha" operator="out" result="shadowBlurOuter1"/><feColorMatrix in="shadowBlurOuter1" values="0 0 0 0 0 0 0 0 0 0 0 0 0 0 0 0 0 0 0.199473505 0"/></filter><path id="e" d="M18.08 11.574c-.003.893-.009 1.785-.01 2.677-.001 1.484-.003 2.969.004 4.453 0 .18-.05.287-.207.382-.61.367-1.21.75-1.854 1.153v-.325c0-2.297-.003-4.595.004-6.892.001-.191-.05-.299-.222-.392-.535-.29-1.058-.602-1.586-.904-.058-.033-.12-.06-.209-.104v.315c0 2.059-.004 4.118.006 6.176 0 .207-.066.315-.24.412-.525.29-1.038.6-1.557.902-.073.042-.15.079-.266.14v-.32c0-2.068-.005-4.136.007-6.203.001-.24-.08-.36-.28-.47-.584-.326-1.157-.672-1.764-1.027.672-.387 1.318-.763 1.971-1.124.06-.033.185.01.26.053.569.32 1.136.643 1.697.976.136.08.235.09.377.003.518-.317 1.054-.608 1.57-.93.186-.116.32-.097.497.009.597.357 1.204.7 1.808 1.047l-.006-.007zm.006.007c.044-.046.082-.105.135-.136.563-.328 1.126-.658 1.699-.968a.43.43 0 0 1 .351.003c.582.313 1.156.641 1.723.979.078.046.156.168.156.255.009 2.163.008 4.327.004 6.49 0 .07-.018.18-.065.208-.648.386-1.303.761-1.998 1.163v-.329c0-2.084-.002-4.168.004-6.251 0-.177-.042-.284-.208-.375-.608-.338-1.206-.696-1.807-1.046l.006.007zM6.939 17.788A1.422 1.422 0 0 1 5.5 16.375a1.419 1.419 0 0 1 1.42-1.433 1.417 1.417 0 0 1 1.438 1.414 1.416 1.416 0 0 1-1.419 1.432zm1.915 4.287a1.349 1.349 0 0 1-1.36-1.33 1.361 1.361 0 0 1 1.332-1.364c.725-.016 1.352.6 1.36 1.337a1.347 1.347 0 0 1-1.332 1.357zM7.767 10.399c.72.002 1.298.58 1.298 1.295 0 .727-.592 1.312-1.32 1.304a1.284 1.284 0 0 1-1.275-1.312 1.275 1.275 0 0 1 1.297-1.287zm17.522 4.906a1.215 1.215 0 1 1 0-2.43 1.215 1.215 0 0 1 0 2.43zM9.542 7.617a1.09 1.09 0 0 1 1.105-1.106 1.101 1.101 0 0 1 1.102 1.115 1.102 1.102 0 0 1-1.11 1.106 1.092 1.092 0 0 1-1.097-1.115zM24.636 19.91a1.087 1.087 0 0 1-1.11-1.099 1.107 1.107 0 0 1 1.095-1.123 1.108 1.108 0 0 1 1.111 1.107 1.088 1.088 0 0 1-1.096 1.115zm-8.65-14.055a.818.818 0 0 1-.852.815.823.823 0 0 1-.807-.862.834.834 0 0 1 .841-.807.826.826 0 0 1 .818.854zm5.771 17.502a.814.814 0 0 1-.818-.826.823.823 0 0 1 .849-.827c.46.006.82.37.818.83 0 .472-.368.827-.849.823zM17.477 25a.767.767 0 0 1-.783-.788.782.782 0 0 1 .795-.785.8.8 0 0 1 .791.796.779.779 0 0 1-.803.777zm2.628-17.723a.71.71 0 0 1 .008-1.42c.384.002.71.331.709.714a.725.725 0 0 1-.717.706zm-6.538 16.282a.612.612 0 0 1-.63.61.606.606 0 0 1-.605-.633.62.62 0 0 1 .629-.612.62.62 0 0 1 .606.635zM24.23 9.58a.532.532 0 0 1-.518.554.539.539 0 0 1-.548-.525.529.529 0 0 1 .52-.55c.299-.01.54.221.546.522z"/><filter id="d" width="116.7%" height="117.5%" x="-8.3%" y="-6.2%" filterUnits="objectBoundingBox"><feOffset dy=".5" in="SourceAlpha" result="shadowOffsetOuter1"/><feGaussianBlur in="shadowOffsetOuter1" result="shadowBlurOuter1" stdDeviation=".5"/><feColorMatrix in="shadowBlurOuter1" values="0 0 0 0 0 0 0 0 0 0 0 0 0 0 0 0 0 0 0.204257246 0"/></filter></defs><g fill="none" fill-rule="evenodd"><use fill="#000" filter="url(#a)" xlink:href="#b"/><use fill="#00A5FF" xlink:href="#b"/><use fill="url(#c)" style="mix-blend-mode:soft-light" xlink:href="#b"/><circle cx="16" cy="15" r="14.5" stroke="#000" stroke-opacity=".097"/><use fill="#000" filter="url(#d)" xlink:href="#e"/><use fill="#FFF" xlink:href="#e"/></g></svg>
